src/icons/email.svg

<svg width="64" height="64" viewBox="0 0 64 64" fill="none" xmlns="http://www.w3.org/2000/svg">
<g clip-path="url(#clip0)">
<path d="M63.4362 12.7148L44.0264 31.9997L63.4362 51.2846C63.7871 50.5512 64 49.7405 64 48.8747V15.1247C64 14.2588 63.7871 13.4482 63.4362 12.7148Z" fill="#333333"/>
<path d="M58.3747 9.5H5.62472C4.75884 9.5 3.94822 9.71288 3.21484 10.0638L28.0227 34.7466C30.2162 36.9401 33.7832 36.9401 35.9767 34.7466L60.7846 10.0638C60.0512 9.71288 59.2406 9.5 58.3747 9.5Z" fill="#333333"/>
<path d="M0.56375 12.7148C0.212875 13.4482 0 14.2588 0 15.1247V48.8747C0 49.7406 0.212875 50.5513 0.56375 51.2846L19.9736 31.9997L0.56375 12.7148Z" fill="#333333"/>
<path d="M41.3747 34.6514L38.6281 37.398C34.9732 41.0529 29.0261 41.0529 25.3712 37.398L22.6247 34.6514L3.21484 53.9362C3.94822 54.2871 4.75884 54.5 5.62472 54.5H58.3747C59.2406 54.5 60.0512 54.2871 60.7846 53.9362L41.3747 34.6514Z" fill="#333333"/>
</g>
<defs>
<clipPath id="clip0">
<rect width="64" height="64" fill="white"/>
</clipPath>
</defs>
</svg>

<svg xmlns="http://www.w3.org/2000/svg" fill="none" viewBox="0 0 64 64"><defs/><g fill="#333" clip-path="url(#clip0)"><path d="M63.436 12.715L44.026 32l19.41 19.285a5.56 5.56 0 00.564-2.41v-33.75a5.56 5.56 0 00-.564-2.41zM58.375 9.5H5.625a5.56 5.56 0 00-2.41.564l24.808 24.683a5.63 5.63 0 007.954 0l24.808-24.683a5.56 5.56 0 00-2.41-.564zM.564 12.715A5.56 5.56 0 000 15.125v33.75c0 .866.213 1.676.564 2.41L19.974 32 .564 12.715z"/><path d="M41.375 34.651l-2.747 2.747c-3.655 3.655-9.602 3.655-13.257 0l-2.746-2.747-19.41 19.285a5.56 5.56 0 002.41.564h52.75a5.56 5.56 0 002.41-.564l-19.41-19.285z"/></g><defs><clipPath id="clip0"><path fill="#fff" d="M0 0h64v64H0z"/></clipPath></defs></svg>
